optimized/solid/desktop-computer.svg

<svg xmlns="http://www.w3.org/2000/svg" viewBox="0 0 20 20" fill="currentColor" aria-hidden="true">
  <path fill-rule="evenodd" d="M3 5C3 3.89543 3.89543 3 5 3H15C16.1046 3 17 3.89543 17 5V13C17 14.1046 16.1046 15 15 15H12.7808L12.903 15.4887L13.7071 16.2929C13.9931 16.5789 14.0787 17.009 13.9239 17.3827C13.7691 17.7563 13.4045 18 13 18H7.00003C6.59557 18 6.23093 17.7563 6.07615 17.3827C5.92137 17.009 6.00692 16.5789 6.29292 16.2929L7.09706 15.4887L7.21925 15H5C3.89543 15 3 14.1046 3 13V5ZM8.7713 12C8.75657 11.9997 8.74189 11.9997 8.72725 12H5V5H15V12H11.2728C11.2582 11.9997 11.2435 11.9997 11.2288 12H8.7713Z" clip-rule="evenodd"/>
</svg>

<svg xmlns="http://www.w3.org/2000/svg" viewBox="0 0 20 20" fill="currentColor" aria-hidden="true">
  <path fill-rule="evenodd" d="M3 5a2 2 0 012-2h10a2 2 0 012 2v8a2 2 0 01-2 2h-2.22l.123.489.804.804A1 1 0 0113 18H7a1 1 0 01-.707-1.707l.804-.804L7.22 15H5a2 2 0 01-2-2V5zm5.771 7H5V5h10v7H8.771z" clip-rule="evenodd"/>
</svg>
